X:1
T:Title
%%score ( 1 2 ) ( 3 4 )
L:1/8
Q:1/4=90
M:4/4
K:Eb
V:1 treble nm="Strings 1, Soprano"
V:2 treble 
V:3 bass nm="Strings 1, Bass"
V:4 bass 
V:1
 z4 z2 E>F | [EG]2 [EG]2 [GB]>[FA] [EG]>[B,F] | [B,E]6 E2 | [DF]2 [DF]2 [EF]>[EF] [DB]>[E=A] | %4
w: 1.~Oh,~ *|come~ re ceive~ the~ gos pel~|light,~ Sal|va tion's~ plan~ is~ all~ com|
 [DB]6 G>F | E2 E2 [Ge]>[Ge] [Ac]>[Ae] | [GB]6 E2 | [DF]2 [DF]2 [EG]3 [DF] | [B,E]6 D>E | %9
w: plete;~ Oh,~ *|wash~ thy~ crim son~ gar ments~|white,~ Come,~|bow~ at~ Je sus'~|feet.~ * *|
 D2 D>D D2 B>=A | B2- [GB-]>[GB-] [GB]2 [GB]2 | [Ac]6 [Ad]>[Ad] | e2- [Ge-]>[Ge-] [Ge]2 [Ge]>[Ge] | %13
w: ||||
 d2- [Ad-]2 [Ad]2 [Dc]>[Dc] | B6 z2 | [DF]2 [DF]2 [EG]3 [B,F] | [B,E]6 z2 |] %17
w: ||||
V:2
 z4 z2 B,2 | x8 | x8 | x8 | z4 z2 E2 | x8 | x8 | x8 | x8 | F6 z2 | E2 z2 z4 | x8 | G2 z2 z4 | %13
 A2 z2 z4 | E2 G2 G2 E2 | x8 | x8 |] %17
V:3
 z4 z2 G,>A, | [E,B,]2 [E,B,]2 [B,,B,]>[B,,B,] [B,,B,]>[B,,A,] | [E,G,]6 [E,G,]2 | %3
 [B,,B,]2 [B,,B,]2 [C,=A,]>[C,A,] [F,B,]>[F,C] | [B,,B,]6 B,>A, | %5
 [E,G,]2 [E,G,]2 [E,B,]>[E,B,] [A,,E]>[C,E] | [E,E]6 [G,,B,]2 | %7
 [B,,B,]2 [B,,B,]2 [B,,B,]3 [B,,A,] | [E,G,]6 z2 | [B,,B,]2 [B,,B,]>[B,,B,] [B,,B,]2 z2 | %10
 [E,G,]2 [E,B,]>[E,B,] [E,E]2 [E,E]2 | [A,E]2 [A,E]>[A,E] [A,E]2 [F,B,]2 | %12
 [E,B,]2 [E,B,]>[E,B,] [E,B,]2 [E,B,]>[E,B,] | [B,,B,]2 [B,,B,]2 [B,,B,]2 [B,,A,]>[B,,A,] | %14
 [E,G,]2 [E,B,]2 [E,E]2 [G,,B,]2 | [B,,B,]2 [B,,B,]2 [B,,B,]3 [B,,A,] | [E,G,]6 z2 |] %17
V:4
 z4 z2 E,2 | x8 | x8 | x8 | z4 z2 E,2 | x8 | x8 | x8 | x8 | x8 | x8 | x8 | x8 | x8 | x8 | x8 | %16
 x8 |] %17

